images/clock.active.svg

﻿<?xml version="1.0" encoding="utf-8"?>
<!DOCTYPE svg PUBLIC "-//W3C//DTD SVG 1.1//EN" "http://www.w3.org/Graphics/SVG/1.1/DTD/svg11.dtd">
<svg xmlns="http://www.w3.org/2000/svg" xmlns:xlink="http://www.w3.org/1999/xlink" version="1.1" baseProfile="full" width="76" height="76" viewBox="0 0 76.00 76.00" enable-background="new 0 0 76.00 76.00" xml:space="preserve">
	<path fill="#ff6600" fill-opacity="1" stroke-width="0.2" stroke-linejoin="round" d="M 38,23.75C 46.7445,23.75 53.8333,30.8388 53.8333,39.5833C 53.8333,48.3278 46.7445,55.4167 38,55.4167C 29.2555,55.4167 22.1667,48.3278 22.1667,39.5833C 22.1667,30.8388 29.2555,23.75 38,23.75 Z M 38,27.7083C 31.4416,27.7083 26.125,33.025 26.125,39.5833C 26.125,46.1417 31.4416,51.4583 38,51.4583C 44.5584,51.4583 49.875,46.1417 49.875,39.5833C 49.875,33.025 44.5584,27.7083 38,27.7083 Z M 37.6042,30.875C 38.4786,30.875 39.1875,31.5839 39.1875,32.4583L 39.1875,38.3959L 45.125,38.3959C 45.9994,38.3959 46.7083,39.1047 46.7083,39.9792L 46.7083,40.7708C 46.7083,41.6453 45.9994,42.3542 45.125,42.3542L 38,42.3542C 37.2083,42.2222 36.4167,42.0903 35.9548,41.6285C 35.493,41.1667 35.3611,40.375 35.2292,39.5833L 35.2292,32.4583C 35.2292,31.5839 35.938,30.875 36.8125,30.875L 37.6042,30.875 Z M 49.0833,20.5833C 52.5811,20.5833 55.4167,23.4189 55.4167,26.9167C 55.4167,28.4256 54.889,29.8113 54.008,30.8993C 51.9429,27.1006 48.5651,24.1189 44.4835,22.5632C 45.6379,21.3439 47.2718,20.5833 49.0833,20.5833 Z M 26.9167,20.5834C 28.7282,20.5834 30.3621,21.3439 31.5165,22.5632C 27.4349,24.1189 24.0571,27.1006 21.992,30.8993C 21.111,29.8113 20.5833,28.4256 20.5833,26.9167C 20.5833,23.4189 23.4189,20.5834 26.9167,20.5834 Z "/>
</svg>

<?xml version="1.0" encoding="utf-8"?>
<!-- Generator: Adobe Illustrator 18.0.0, SVG Export Plug-In . SVG Version: 6.00 Build 0)  -->
<!DOCTYPE svg PUBLIC "-//W3C//DTD SVG 1.1//EN" "http://www.w3.org/Graphics/SVG/1.1/DTD/svg11.dtd">
<svg version="1.1" id="图层_1" xmlns="http://www.w3.org/2000/svg" xmlns:xlink="http://www.w3.org/1999/xlink" x="0px" y="0px"
	 viewBox="0 0 76 76" enable-background="new 0 0 76 76" xml:space="preserve">
<path fill="#FF6600" d="M38,23.8c8.7,0,15.8,7.1,15.8,15.8S46.7,55.4,38,55.4s-15.8-7.1-15.8-15.8S29.3,23.8,38,23.8z M38,27.7
	c-6.6,0-11.9,5.3-11.9,11.9c0,6.6,5.3,11.9,11.9,11.9s11.9-5.3,11.9-11.9C49.9,33,44.6,27.7,38,27.7z M37.6,30.9
	c0.9,0,1.6,0.7,1.6,1.6v5.9h5.9c0.9,0,1.6,0.7,1.6,1.6v0.8c0,0.9-0.7,1.6-1.6,1.6H38c-0.8-0.1-1.6-0.3-2-0.7c-0.5-0.5-0.6-1.3-0.7-2
	v-7.1c0-0.9,0.7-1.6,1.6-1.6H37.6z M49.1,20.6c3.5,0,6.3,2.8,6.3,6.3c0,1.5-0.5,2.9-1.4,4c-2.1-3.8-5.4-6.8-9.5-8.3
	C45.6,21.3,47.3,20.6,49.1,20.6z M26.9,20.6c1.8,0,3.4,0.8,4.6,2c-4.1,1.6-7.5,4.5-9.5,8.3c-0.9-1.1-1.4-2.5-1.4-4
	C20.6,23.4,23.4,20.6,26.9,20.6z"/>
</svg>
